svgs/regular/spaghetti-monster-flying.svg

<svg xmlns="http://www.w3.org/2000/svg" viewBox="0 0 640 512"><!-- Font Awesome Pro 6.0.0-alpha2 by @fontawesome - https://fontawesome.com License - https://fontawesome.com/license (Commercial License) --><path d="M624.5 347.625C591.875 335.25 567.125 352 549.125 364.125C532 375.625 525.999 378.5 517.75 375.5C509.625 372.375 507 366.125 501.875 346.125C498.5 333 494.5 316.75 483.875 303.5C486.125 300.5 488.375 297.625 490.25 294.875C500.5 304.5 513.75 312 532 312C565.999 312 582.875 286.25 593.999 269.125C604.625 253 609 248 616 248C629.25 248 640 237.25 640 224S629.25 200 616 200C581.999 200 565.125 225.75 553.999 242.875C543.375 259 539 264 532 264C514.125 264 492.375 197.25 428.125 157.5L443.125 127.5C444.75 127.625 446.375 128 448 128C483.375 128 512 99.375 512 64S483.375 0 448 0S384 28.625 384 64C384 80.25 390.25 94.75 400.125 106.125L384.25 137.75C365.25 131.75 344.125 128 320 128S274.75 131.75 255.75 137.75L239.875 106.125C249.75 94.75 256 80.25 256 64C256 28.625 227.375 0 192 0S128 28.625 128 64S156.625 128 192 128C193.625 128 195.25 127.625 196.875 127.5L212 157.5C148.375 196.875 125.5 264 108 264C101.125 264 96.625 259 86.125 242.875C74.875 225.75 57.999 200 24 200C10.75 200 0 210.75 0 224S10.75 248 24 248C31 248 35.375 253 45.999 269.125C57.125 286.25 73.999 312 108 312C126.25 312 139.5 304.5 149.75 294.875C151.625 297.625 153.875 300.5 156.125 303.5C145.625 316.75 141.5 333 138.125 346.125C133.125 366.125 130.375 372.375 122.25 375.5C114.125 378.5 107.875 375.625 90.875 364.125C72.875 352 48.125 335.25 15.5 347.625C3.125 352.375 -3.125 366.25 1.625 378.625C6.375 391 20.25 397.25 32.5 392.5C40.75 389.5 46.875 392.375 64 403.875C77.5 413 94.75 424.75 116.375 424.75C123.5 424.75 131.25 423.5 139.375 420.375C172 407.875 179.375 379 184.625 357.875C186.875 349.125 188.625 343.375 190.625 339C207.25 352.625 227.5 364.875 252.25 373.25C242.25 410.25 220.125 464 192 464C178.75 464 168 474.75 168 488S178.75 512 192 512C258.75 512 289 423.375 299.375 382.875C306.125 383.5 312.875 384 320 384S333.875 383.5 340.625 382.875C351 423.375 381.25 512 448 512C461.25 512 472 501.25 472 488S461.25 464 448 464C420 464 397.75 410.25 387.75 373.125C412.5 364.875 432.75 352.625 449.375 339C451.375 343.375 453.125 349.125 455.375 357.875C460.625 379 468 407.875 500.625 420.375C508.75 423.5 516.5 424.75 523.625 424.75C545.25 424.75 562.5 413 576 403.875C593.125 392.375 599.25 389.375 607.5 392.5C619.875 397.25 633.625 391 638.375 378.625C643.125 366.25 636.875 352.375 624.5 347.625ZM448 48C456.75 48 464 55.125 464 64S456.75 80 448 80C439.125 80 432 72.875 432 64S439.125 48 448 48ZM192 80C183.25 80 176 72.875 176 64S183.25 48 192 48C200.875 48 208 55.125 208 64S200.875 80 192 80ZM320 336C239.375 336 197.875 283.875 181.5 256C197.999 228 239.5 176 320 176C400.625 176 442.125 228.125 458.5 256C441.999 284 400.5 336 320 336Z"/></svg>

<svg xmlns="http://www.w3.org/2000/svg" viewBox="0 0 640 512"><!--! Font Awesome Pro 6.0.0-alpha3 by @fontawesome - https://fontawesome.com License - https://fontawesome.com/license (Commercial License) --><path d="M624.5 347.7c-32.63-12.38-57.38 4.366-75.38 16.49c-17.12 11.5-23.13 14.37-31.38 11.37c-8.125-3.125-10.75-9.358-15.88-29.36c-3.375-13.12-7.375-29.47-18-42.72c2.25-3 4.5-5.875 6.375-8.625C500.5 304.5 513.8 312 532 312c33.1 0 50.88-25.75 61.1-42.88C604.6 253 609 248 616 248C629.3 248 640 237.2 640 224s-10.75-24-24-24c-34 0-50.87 25.75-62 42.88C543.4 259 539 264 532 264c-17.88 0-39.63-66.75-103.9-106.5l15-30C444.8 127.6 446.4 127.9 448 127.9c35.38 0 64-28.54 64-63.92S483.4 0 448 0s-64 28.6-64 63.97c0 16.25 6.25 30.78 16.12 42.15l-15.88 31.63C365.2 131.8 344.1 128 320 128S274.8 131.8 255.8 137.8L239.9 106.1C249.8 94.75 256 80.22 256 63.97C256 28.6 227.4 0 192 0S128 28.6 128 63.97s28.62 63.92 64 63.92c1.625 0 3.25-.267 4.875-.392L212 157.5C148.4 196.9 125.5 264 108 264c-6.875 0-11.44-5-21.94-21.12C74.81 225.8 57.1 200 24 200C10.75 200 0 210.8 0 224s10.75 24 24 24c7 0 11.38 5 21.1 21.12C57.13 286.2 73.1 312 108 312c18.25 0 31.5-7.5 41.75-17.12C151.6 297.6 153.9 300.5 156.1 303.5c-10.5 13.25-14.62 29.59-18 42.72c-5 20-7.75 26.23-15.88 29.36c-8.125 3-14.37 .1314-31.37-11.37c-18-12.12-42.75-28.87-75.38-16.49c-12.38 4.75-18.62 18.61-13.88 30.98C6.375 391.1 20.25 397.3 32.5 392.6C40.75 389.6 46.88 392.4 64 403.9c13.5 9.125 30.75 20.86 52.38 20.86c7.125 0 14.87-1.248 23-4.373c32.62-12.5 40-41.34 45.25-62.46c2.25-8.75 4-14.49 6-18.86c16.62 13.62 36.88 25.86 61.63 34.23C242.3 410.3 220.1 464 192 464c-13.25 0-24 10.74-24 23.99S178.8 512 192 512c66.75 0 97-88.55 107.4-129.1C306.1 383.6 312.9 384 320 384s13.88-.4706 20.62-1.096C351 423.4 381.2 512 448 512c13.25 0 24-10.74 24-23.99S461.2 464 448 464c-28 0-50.25-53.62-60.25-90.74c24.75-8.25 45-20.56 61.63-34.19c2 4.375 3.75 10.11 6 18.86c5.25 21.12 12.62 49.96 45.25 62.46c8.125 3.125 15.88 4.373 23 4.373c21.62 0 38.96-11.74 52.46-20.86c17.12-11.5 23.17-14.49 31.42-11.37c12.38 4.75 26.12-1.492 30.88-13.87C643.1 366.3 636.9 352.5 624.5 347.7zM448 47.98c8.75 0 16 7.118 16 15.99s-7.25 16-16 16c-8.875 0-16-7.125-16-16S439.1 47.98 448 47.98zM192 79.97c-8.75 0-16-7.125-16-16S183.2 47.98 192 47.98c8.875 0 16 7.118 16 15.99S200.9 79.97 192 79.97zM320 336c-80.62 0-122.1-52.13-138.5-80C197.1 228 239.5 176 320 176c80.63 0 122.1 52.12 138.5 80C441.1 284 400.5 336 320 336z"/></svg>
